dist/img/svg/Layers.svg

<svg width="24" height="24" viewBox="0 0 24 24" fill="none" xmlns="http://www.w3.org/2000/svg">
<path d="M12 1.88281L1.76367 7L3.55273 7.89453L6.76367 9.5L1.76367 12L6.76367 14.5L1.76367 17L12 22.1172L22.2363 17L17.2363 14.5L22.2363 12L17.2363 9.5L22.2363 7L12 1.88281ZM12 4.11719L17.7637 7L12 9.88281L6.23633 7L12 4.11719ZM9 10.6172L12 12.1172L15 10.6172L17.7637 12L12 14.8828L6.23633 12L9 10.6172ZM9 15.6172L12 17.1172L15 15.6172L17.7637 17L12 19.8828L6.23633 17L9 15.6172Z" fill="#ACADAC"/>
</svg>

<svg width="24" height="24" viewBox="0 0 24 24" fill="none" xmlns="http://www.w3.org/2000/svg"><path d="M12 1.883L1.764 7l1.789.895L6.763 9.5l-5 2.5 5 2.5-5 2.5L12 22.117 22.236 17l-5-2.5 5-2.5-5-2.5 5-2.5L12 1.883zm0 2.234L17.764 7 12 9.883 6.236 7 12 4.117zm-3 6.5l3 1.5 3-1.5L17.764 12 12 14.883 6.236 12 9 10.617zm0 5l3 1.5 3-1.5L17.764 17 12 19.883 6.236 17 9 15.617z" fill="#ACADAC"/></svg>
